images/icons/dark/payment.svg

<svg height="80" viewBox="0 0 80 80" width="80" xmlns="http://www.w3.org/2000/svg" xmlns:xlink="http://www.w3.org/1999/xlink"><defs><path id="a" d="m37 41.687234c0 3.6191671-1.3127478 6.6909449-3.9382826 9.2154256-2.6255349 2.5244807-6.4314003 4.0547845-11.4177102 4.5909574v7.506383h-5.4275492v-7.4393617c-3.2653712-.2234054-6.35418941-.8265908-9.26654745-1.8095745-2.91235803-.9829836-5.22897171-2.2340349-6.94991055-3.7531915l2.97853309-6.7691489c1.63268557 1.3404322 3.61835444 2.4686124 5.95706619 3.3845745 2.33871172.915962 4.76564042 1.4856372 7.28085872 1.7090425v-13.4042553c-3.1329913-.7595783-5.7474553-1.5973358-7.84347052-2.5132979-2.09601525-.915962-3.85002276-2.2563741-5.26207514-4.0212766-1.41205238-1.7649024-2.11806797-4.0994535-2.11806797-7.0037234 0-3.619167 1.30171626-6.7021149 3.90518783-9.2489361 2.60347157-2.54682128 6.3762424-4.06595503 11.3184258-4.55744684v-7.57340426h5.4275492v7.4393617c2.4710916.13404323 4.8869887.55850707 7.2477638 1.27340426s4.4236644 1.65318564 6.1887299 2.81489364l-2.7137746 6.7691489c-3.3536244-1.9659673-6.9278284-3.1723382-10.7227191-3.6191489v13.5382978c3.1771178.7595783 5.8136448 1.5861658 7.9096601 2.4797873 2.0960152.8936215 3.8610542 2.2228635 5.2951699 3.9877659 1.4341157 1.7649025 2.1511628 4.0994536 2.1511628 7.0037234zm-27.4686941-20.7095744c0 1.4744754.5736377 2.6585061 1.7209302 3.5521276 1.1472926.8936215 2.8020167 1.6531884 4.9642219 2.2787234v-11.9297872c-2.2504585.3574486-3.9272456 1.0723351-5.0304115 2.1446809-1.1031659 1.0723457-1.6547406 2.3904177-1.6547406 3.9542553zm12.1127013 27.2106383c2.3387117-.3574486 4.0706562-1.0499949 5.1958855-2.0776596 1.1252292-1.0276647 1.6878354-2.3010562 1.6878354-3.8202128 0-1.5191565-.5957007-2.7366975-1.7871199-3.6526595-1.1914192-.9159621-2.8902692-1.686699-5.096601-2.3122341z"/><filter id="b" height="103.2%" width="110.8%" x="-2.7%" y="-1.6%"><feOffset dx="2" dy="0" in="SourceAlpha" result="shadowOffsetOuter1"/><feColorMatrix in="shadowOffsetOuter1" type="matrix" values="0 0 0 0 0.0901960784   0 0 0 0 0.882352941   0 0 0 0 0.996078431  0 0 0 1 0"/></filter><path id="c" d="m39 41.687234c0 3.6191671-1.3127478 6.6909449-3.9382826 9.2154256-2.6255349 2.5244807-6.4314003 4.0547845-11.4177102 4.5909574v7.506383h-5.4275492v-7.4393617c-3.2653712-.2234054-6.3541894-.8265908-9.26654745-1.8095745-2.91235803-.9829836-5.22897171-2.2340349-6.94991055-3.7531915l2.97853309-6.7691489c1.63268557 1.3404322 3.61835444 2.4686124 5.95706621 3.3845745 2.3387117.915962 4.7656404 1.4856372 7.2808587 1.7090425v-13.4042553c-3.1329913-.7595783-5.7474553-1.5973358-7.8434705-2.5132979-2.09601527-.915962-3.85002278-2.2563741-5.26207516-4.0212766-1.41205238-1.7649024-2.11806798-4.0994535-2.11806798-7.0037234 0-3.619167 1.30171627-6.7021149 3.90518784-9.2489361 2.60347157-2.54682128 6.3762424-4.06595503 11.3184258-4.55744684v-7.57340426h5.4275492v7.4393617c2.4710916.13404323 4.8869887.55850707 7.2477638 1.27340426s4.4236644 1.65318564 6.1887299 2.81489364l-2.7137746 6.7691489c-3.3536244-1.9659673-6.9278284-3.1723382-10.7227191-3.6191489v13.5382978c3.1771178.7595783 5.8136448 1.5861658 7.9096601 2.4797873 2.0960152.8936215 3.8610542 2.2228635 5.2951699 3.9877659 1.4341157 1.7649025 2.1511628 4.0994536 2.1511628 7.0037234zm-27.4686941-20.7095744c0 1.4744754.5736377 2.6585061 1.7209302 3.5521276 1.1472926.8936215 2.8020167 1.6531884 4.9642219 2.2787234v-11.9297872c-2.2504585.3574486-3.9272456 1.0723351-5.0304115 2.1446809-1.1031659 1.0723457-1.6547406 2.3904177-1.6547406 3.9542553zm12.1127013 27.2106383c2.3387117-.3574486 4.0706562-1.0499949 5.1958855-2.0776596 1.1252292-1.0276647 1.6878354-2.3010562 1.6878354-3.8202128 0-1.5191565-.5957007-2.7366975-1.7871199-3.6526595-1.1914192-.9159621-2.8902692-1.686699-5.096601-2.3122341z"/><filter id="d" height="101.6%" width="102.7%" x="-1.4%" y="-.8%"><feOffset dx="1" dy="0" in="SourceAlpha" result="shadowOffsetInner1"/><feComposite in="shadowOffsetInner1" in2="SourceAlpha" k2="-1" k3="1" operator="arithmetic" result="shadowInnerInner1"/><feColorMatrix in="shadowInnerInner1" type="matrix" values="0 0 0 0 1   0 0 0 0 0.152941176   0 0 0 0 0.321568627  0 0 0 0.5 0"/></filter><mask id="e" fill="#fff"><use fill="#fff" fill-rule="evenodd" xlink:href="#a"/></mask></defs><g fill="none" fill-rule="evenodd" transform="translate(22 9)"><use fill="#000" filter="url(#b)" xlink:href="#a"/><use fill="#ff2752" fill-rule="evenodd" xlink:href="#a"/><g fill="#000" mask="url(#e)"><use fill-rule="evenodd" xlink:href="#c"/><use filter="url(#d)" xlink:href="#c"/></g></g></svg>

<?xml version="1.0" encoding="UTF-8"?>
<svg width="80px" height="80px" viewBox="0 0 80 80" version="1.1" xmlns="http://www.w3.org/2000/svg" xmlns:xlink="http://www.w3.org/1999/xlink">
    <!-- Generator: Sketch 49.1 (51147) - http://www.bohemiancoding.com/sketch -->
    <title>Atoms/Icons/80/Payment</title>
    <desc>Created with Sketch.</desc>
    <defs>
        <path d="M37,41.687234 C37,45.3064011 35.6872522,48.3781789 33.0617174,50.9026596 C30.4361825,53.4271403 26.6303171,54.9574441 21.6440072,55.493617 L21.6440072,63 L16.216458,63 L16.216458,55.5606383 C12.9510868,55.3372329 9.86226859,54.7340475 6.94991055,53.7510638 C4.03755252,52.7680802 1.72093884,51.5170289 0,49.9978723 L2.97853309,43.2287234 C4.61121866,44.5691556 6.59688753,45.6973358 8.93559928,46.6132979 C11.274311,47.5292599 13.7012397,48.0989351 16.216458,48.3223404 L16.216458,34.9180851 C13.0834667,34.1585068 10.4690027,33.3207493 8.37298748,32.4047872 C6.27697223,31.4888252 4.52296472,30.1484131 3.11091234,28.3835106 C1.69885996,26.6186082 0.992844365,24.2840571 0.992844365,21.3797872 C0.992844365,17.7606202 2.29456063,14.6776723 4.8980322,12.1308511 C7.50150377,9.58402982 11.2742746,8.06489607 16.216458,7.57340426 L16.216458,0 L21.6440072,0 L21.6440072,7.4393617 C24.1150988,7.57340493 26.5309959,7.99786877 28.891771,8.71276596 C31.2525461,9.42766315 33.3154354,10.3659516 35.0805009,11.5276596 L32.3667263,18.2968085 C29.0131019,16.3308412 25.4388979,15.1244703 21.6440072,14.6776596 L21.6440072,28.2159574 C24.821125,28.9755357 27.457652,29.8021232 29.5536673,30.6957447 C31.6496825,31.5893662 33.4147215,32.9186082 34.8488372,34.6835106 C36.2829529,36.4484131 37,38.7829642 37,41.687234 Z M9.5313059,20.9776596 C9.5313059,22.452135 10.1049436,23.6361657 11.2522361,24.5297872 C12.3995287,25.4234087 14.0542528,26.1829756 16.216458,26.8085106 L16.216458,14.8787234 C13.9659995,15.236172 12.2892124,15.9510585 11.1860465,17.0234043 C10.0828806,18.09575 9.5313059,19.413822 9.5313059,20.9776596 Z M21.6440072,48.1882979 C23.9827189,47.8308493 25.7146634,47.138303 26.8398927,46.1106383 C27.9651219,45.0829736 28.5277281,43.8095821 28.5277281,42.2904255 C28.5277281,40.771269 27.9320274,39.553728 26.7406082,38.637766 C25.549189,37.7218039 23.850339,36.951067 21.6440072,36.3255319 L21.6440072,48.1882979 Z" id="path-1"></path>
        <filter x="-2.7%" y="-1.6%" width="110.8%" height="103.2%" filterUnits="objectBoundingBox" id="filter-3">
            <feOffset dx="2" dy="0" in="SourceAlpha" result="shadowOffsetOuter1"></feOffset>
            <feColorMatrix values="0 0 0 0 0.0901960784   0 0 0 0 0.882352941   0 0 0 0 0.996078431  0 0 0 1 0" type="matrix" in="shadowOffsetOuter1"></feColorMatrix>
        </filter>
        <path d="M39,41.687234 C39,45.3064011 37.6872522,48.3781789 35.0617174,50.9026596 C32.4361825,53.4271403 28.6303171,54.9574441 23.6440072,55.493617 L23.6440072,63 L18.216458,63 L18.216458,55.5606383 C14.9510868,55.3372329 11.8622686,54.7340475 8.94991055,53.7510638 C6.03755252,52.7680802 3.72093884,51.5170289 2,49.9978723 L4.97853309,43.2287234 C6.61121866,44.5691556 8.59688753,45.6973358 10.9355993,46.6132979 C13.274311,47.5292599 15.7012397,48.0989351 18.216458,48.3223404 L18.216458,34.9180851 C15.0834667,34.1585068 12.4690027,33.3207493 10.3729875,32.4047872 C8.27697223,31.4888252 6.52296472,30.1484131 5.11091234,28.3835106 C3.69885996,26.6186082 2.99284436,24.2840571 2.99284436,21.3797872 C2.99284436,17.7606202 4.29456063,14.6776723 6.8980322,12.1308511 C9.50150377,9.58402982 13.2742746,8.06489607 18.216458,7.57340426 L18.216458,0 L23.6440072,0 L23.6440072,7.4393617 C26.1150988,7.57340493 28.5309959,7.99786877 30.891771,8.71276596 C33.2525461,9.42766315 35.3154354,10.3659516 37.0805009,11.5276596 L34.3667263,18.2968085 C31.0131019,16.3308412 27.4388979,15.1244703 23.6440072,14.6776596 L23.6440072,28.2159574 C26.821125,28.9755357 29.457652,29.8021232 31.5536673,30.6957447 C33.6496825,31.5893662 35.4147215,32.9186082 36.8488372,34.6835106 C38.2829529,36.4484131 39,38.7829642 39,41.687234 Z M11.5313059,20.9776596 C11.5313059,22.452135 12.1049436,23.6361657 13.2522361,24.5297872 C14.3995287,25.4234087 16.0542528,26.1829756 18.216458,26.8085106 L18.216458,14.8787234 C15.9659995,15.236172 14.2892124,15.9510585 13.1860465,17.0234043 C12.0828806,18.09575 11.5313059,19.413822 11.5313059,20.9776596 Z M23.6440072,48.1882979 C25.9827189,47.8308493 27.7146634,47.138303 28.8398927,46.1106383 C29.9651219,45.0829736 30.5277281,43.8095821 30.5277281,42.2904255 C30.5277281,40.771269 29.9320274,39.553728 28.7406082,38.637766 C27.549189,37.7218039 25.850339,36.951067 23.6440072,36.3255319 L23.6440072,48.1882979 Z" id="path-4"></path>
        <filter x="-1.4%" y="-0.8%" width="102.7%" height="101.6%" filterUnits="objectBoundingBox" id="filter-5">
            <feOffset dx="1" dy="0" in="SourceAlpha" result="shadowOffsetInner1"></feOffset>
            <feComposite in="shadowOffsetInner1" in2="SourceAlpha" operator="arithmetic" k2="-1" k3="1" result="shadowInnerInner1"></feComposite>
            <feColorMatrix values="0 0 0 0 1   0 0 0 0 0.152941176   0 0 0 0 0.321568627  0 0 0 0.5 0" type="matrix" in="shadowInnerInner1"></feColorMatrix>
        </filter>
    </defs>
    <g id="Atoms/Icons/80/Payment" stroke="none" stroke-width="1" fill="none" fill-rule="evenodd">
        <g id="icon" transform="translate(22.000000, 9.000000)">
            <mask id="mask-2" fill="white">
                <use xlink:href="#path-1"></use>
            </mask>
            <g id="Mask">
                <use fill="black" fill-opacity="1" filter="url(#filter-3)" xlink:href="#path-1"></use>
                <use fill="#FF2752" fill-rule="evenodd" xlink:href="#path-1"></use>
            </g>
            <g id="$" mask="url(#mask-2)">
                <use fill="#000000" fill-rule="evenodd" xlink:href="#path-4"></use>
                <use fill="black" fill-opacity="1" filter="url(#filter-5)" xlink:href="#path-4"></use>
            </g>
        </g>
    </g>
</svg>
